src/assets/images/contacts/social/Telegram.svg

<svg width="32" height="32" viewBox="0 0 32 32" fill="none" xmlns="http://www.w3.org/2000/svg">
<rect x="0.5" y="0.5" width="31" height="31" stroke="#C81426"/>
<path d="M23.6674 8.00166C23.4451 8.01783 23.2269 8.06998 23.0213 8.15608H23.0186C22.8212 8.23432 21.8829 8.62903 20.4565 9.22732L15.3447 11.3802C11.6767 12.9244 8.07099 14.4451 8.07099 14.4451L8.11392 14.4284C8.11392 14.4284 7.86533 14.5102 7.60565 14.6881C7.44523 14.7902 7.30718 14.9238 7.19987 15.0807C7.07245 15.2677 6.96997 15.5537 7.00805 15.8494C7.07038 16.3493 7.39445 16.6492 7.62712 16.8147C7.86256 16.9823 8.08692 17.0605 8.08692 17.0605H8.09246L11.4738 18.1996C11.6254 18.6864 12.5042 21.5754 12.7154 22.2409C12.84 22.6383 12.9612 22.8869 13.1128 23.0767C13.1862 23.1736 13.2721 23.2546 13.3753 23.3197C13.4289 23.3509 13.4861 23.3756 13.5456 23.3931L13.511 23.3848C13.5214 23.3876 13.5297 23.3959 13.5373 23.3987C13.565 23.4063 13.5837 23.409 13.619 23.4146C14.1543 23.5766 14.5843 23.2442 14.5843 23.2442L14.6086 23.2248L16.605 21.4071L19.9509 23.9741L20.0271 24.0066C20.7244 24.3127 21.4308 24.1424 21.804 23.8418C22.18 23.5392 22.3261 23.1521 22.3261 23.1521L22.3503 23.0898L24.936 9.84362C25.0094 9.51677 25.0281 9.2107 24.9471 8.91363C24.8635 8.61298 24.6706 8.3544 24.4063 8.18862C24.1843 8.05367 23.9269 7.98853 23.6674 8.00166V8.00166ZM23.5975 9.42121C23.5947 9.46484 23.603 9.45999 23.5836 9.54378V9.5514L21.0222 22.6598C21.0111 22.6785 20.9924 22.7193 20.9412 22.7602C20.8872 22.8031 20.8442 22.8301 20.6192 22.7408L16.5267 19.6032L14.0546 21.8565L14.5739 18.5396L21.2604 12.3074C21.536 12.0512 21.4439 11.9972 21.4439 11.9972C21.4633 11.6828 21.0277 11.9051 21.0277 11.9051L12.5963 17.1284L12.5935 17.1145L8.55225 15.7538V15.7511L8.54187 15.749C8.54895 15.7466 8.55589 15.7438 8.56264 15.7407L8.5848 15.7296L8.60627 15.722C8.60627 15.722 12.2147 14.2013 15.8827 12.6571C17.7191 11.8836 19.5694 11.1046 20.9924 10.5035C22.4154 9.90594 23.4673 9.46761 23.5268 9.44406C23.5836 9.4219 23.5566 9.4219 23.5975 9.4219V9.42121Z" fill="#C81426"/>
</svg>

<svg xmlns="http://www.w3.org/2000/svg" width="32" height="32" fill="none" viewBox="0 0 32 32"><path stroke="#C81426" d="M.5.5h31v31H.5z"/><path fill="#C81426" d="M23.667 8.002a2.06 2.06 0 0 0-.646.154h-.002c-.198.078-1.136.473-2.563 1.071l-5.111 2.153c-3.668 1.544-7.274 3.065-7.274 3.065l.043-.017s-.249.082-.508.26c-.16.102-.299.236-.406.393a1.15 1.15 0 0 0-.192.768c.062.5.386.8.62.966.235.167.459.245.459.245h.005l3.382 1.14c.151.486 1.03 3.375 1.241 4.04.125.398.246.647.398.837.073.097.16.178.262.243.054.03.111.056.17.073l-.034-.008c.01.003.019.01.026.014.028.007.047.01.082.016.535.162.965-.17.965-.17l.025-.02 1.996-1.818 3.346 2.567.076.033c.697.306 1.404.135 1.777-.165.376-.303.522-.69.522-.69l.024-.062 2.586-13.246c.073-.327.092-.633.011-.93-.084-.301-.276-.56-.54-.725-.223-.135-.48-.2-.74-.187zm-.07 1.42c-.002.043.006.038-.013.122v.007L21.022 22.66c-.01.018-.03.06-.08.1-.055.043-.098.07-.323-.02l-4.092-3.137-2.472 2.253.519-3.316 6.686-6.233c.276-.256.184-.31.184-.31.02-.314-.416-.092-.416-.092l-8.432 5.223-.002-.014-4.042-1.36v-.003l-.01-.002a.216.216 0 0 0 .02-.008l.023-.011.021-.008 7.277-3.065 5.11-2.153a565.488 565.488 0 0 1 2.534-1.06c.057-.022.03-.022.07-.022z"/></svg>
